X:19
T:Little Stack of Wheat, The
R:hornpipe
S:Mary Bergin
Z:id:hn-hornpipe-19
M:C|
K:G
BA|GEDE GABG|(3ABA GA (3Bcd ef|gedB GABG|dBAG E2BA|
GEDE GABG|(3ABA GA (3Bcd ef|gedB GABG|AGEF G2:|
(3Bcd|ed (3Bcd edgd|ed (3Bcd ~e3f|gedB GABG|dBAG E2 (3Bcd|
ed (3Bcd edgd|ed (3Bcd ~e3f|gedB GABG|AGEF G2 (3Bcd|
ed (3Bcd edgd|ed (3Bcd ~e3f|gedB GABG|dBAG E2BA|
GEDE GABG|(3ABA GA Bdef|gedB GABG|AGEF G2||
<end>
<start>
